findly-builder/apps/searchassist/src/assets/icons/content/in-progress.svg

<svg width="26" height="26" viewBox="0 0 26 26" fill="none" xmlns="http://www.w3.org/2000/svg">
<circle cx="13" cy="13" r="12" stroke="#E4E5E7" stroke-width="2"/>
<path d="M13 25C19.6274 25 25 19.6274 25 13C25 6.37258 19.6274 1 13 1" stroke="#0D6EFD" stroke-width="2" stroke-linecap="round"/>
<path d="M6.54785 15.5795H9.996V17H11.0436V15.5795H12.0059V14.6491H11.0436V9.72727H9.69061L6.54785 14.6918V15.5795ZM10.0031 14.6491H7.69842V14.5923L9.94629 11.0341H10.0031V14.6491ZM15.7755 17.1207C17.4552 17.1207 18.4388 15.75 18.4388 13.3672C18.4388 11.0021 17.441 9.62784 15.7755 9.62784C14.1064 9.62784 13.1121 10.9986 13.1086 13.3672C13.1086 15.7464 14.0922 17.1172 15.7755 17.1207ZM15.7755 16.1726C14.7918 16.1726 14.1988 15.1854 14.1988 13.3672C14.2023 11.5561 14.7954 10.5582 15.7755 10.5582C16.752 10.5582 17.3486 11.5561 17.3486 13.3672C17.3486 15.1854 16.7556 16.1726 15.7755 16.1726Z" fill="#BDC1C6"/>
</svg>

<svg width="26" height="26" fill="none" xmlns="http://www.w3.org/2000/svg"><circle cx="13" cy="13" r="12" stroke="#E4E5E7" stroke-width="2"/><path d="M13 25c6.627 0 12-5.373 12-12S19.627 1 13 1" stroke="#0D6EFD" stroke-width="2" stroke-linecap="round"/><path d="M6.548 15.58h3.448V17h1.048v-1.42h.962v-.93h-.962V9.726H9.69l-3.143 4.965v.887Zm3.455-.93H7.698v-.058l2.248-3.558h.057v3.615Zm5.772 2.47c1.68 0 2.664-1.37 2.664-3.753 0-2.365-.998-3.74-2.664-3.74-1.669 0-2.663 1.372-2.666 3.74 0 2.38.983 3.75 2.666 3.754Zm0-.947c-.983 0-1.576-.988-1.576-2.806.003-1.81.596-2.809 1.576-2.809.977 0 1.574.998 1.574 2.81 0 1.817-.593 2.805-1.574 2.805Z" fill="#BDC1C6"/></svg>
